app/content/themes/irontheme/images/general/contract.svg

<svg width="52" height="52" viewBox="0 0 52 52" fill="none" xmlns="http://www.w3.org/2000/svg">
<path d="M51.9043 12.3308C51.7253 11.6653 51.2887 11.0979 50.6913 10.7539C50.0934 10.4082 49.3826 10.3147 48.7158 10.4937C48.0498 10.6731 47.4824 11.1093 47.1385 11.7067L46.7052 12.4607C46.2935 12.2242 45.7676 12.3634 45.5268 12.773L43.3259 16.5246L42.5719 16.0914C42.3722 15.9759 42.1344 15.9445 41.9118 16.0046C41.6889 16.0651 41.4993 16.2115 41.3847 16.4121C41.1498 16.8263 41.2928 17.3526 41.7054 17.5904L42.4593 18.0237L35.0939 30.7875L33.2742 35.649L32.4076 37.269C31.9003 38.1516 31.9545 39.2487 32.5464 40.0768L30.5967 42.4681L30.0509 41.0994C29.8047 40.4893 29.2348 40.0713 28.5794 40.0201C27.9236 39.9684 27.2953 40.2925 26.9572 40.8565L26.6454 41.385L26.3509 37.9189C26.2832 37.0989 25.6481 36.4397 24.8315 36.3407C24.0145 36.2422 23.2411 36.7317 22.98 37.5119L20.8484 43.9067C20.6995 44.359 20.9432 44.8464 21.3942 44.9987C21.4788 45.0381 21.5698 45.0618 21.6629 45.0677C22.0352 45.069 22.3669 44.8316 22.4863 44.4787L24.609 38.0839L24.9123 41.6016C24.975 42.3522 25.5144 42.9763 26.2481 43.1464C26.9817 43.3165 27.7408 42.9932 28.1271 42.3471L28.4478 41.8183L28.9851 43.179C29.2132 43.7523 29.729 44.1614 30.3395 44.2524C30.95 44.3433 31.5627 44.1026 31.9486 43.6207L33.9676 41.0647C34.191 41.1231 34.4212 41.1523 34.6522 41.1514C35.5809 41.1586 36.4432 40.6695 36.9137 39.8686L37.7802 38.4216L41.0817 34.4097L48.525 21.4898L49.2789 21.923C49.4799 22.0381 49.6263 22.2281 49.686 22.4519C49.746 22.674 49.7147 22.911 49.5997 23.1103L46.1336 29.1154C46.0028 29.3125 45.9584 29.5546 46.0109 29.7856C46.0633 30.0162 46.2076 30.2155 46.4107 30.3369C46.6104 30.4528 46.8482 30.4841 47.0708 30.424C47.2937 30.3635 47.4833 30.2171 47.5979 30.0166L51.064 24.0115C51.4097 23.4136 51.5032 22.7028 51.3238 22.036C51.1444 21.37 50.7082 20.8026 50.1108 20.4587L49.3568 20.0254L51.5231 16.2733C51.7596 15.8616 51.6204 15.3361 51.2113 15.095L51.6445 14.341C51.9995 13.7338 52.0934 13.0086 51.9043 12.3308ZM48.6375 12.5732C48.7522 12.3727 48.9426 12.2259 49.1664 12.1662C49.3889 12.1112 49.6242 12.1421 49.8247 12.253C50.0257 12.3676 50.1721 12.558 50.2322 12.7814C50.2872 13.004 50.2563 13.2392 50.1455 13.4398L49.7122 14.1937L48.2043 13.3272L48.6375 12.5732ZM36.827 36.7668L36.3937 36.5155L35.1113 35.77L36.3417 32.4774L39.0711 34.0543L36.827 36.7668ZM34.2274 39.2707C33.8614 39.0156 33.7489 38.5248 33.9676 38.1356L34.4009 37.382L35.9084 38.2485L35.4751 38.9936C35.3537 39.2043 35.1498 39.3541 34.9124 39.407C34.6751 39.4594 34.4267 39.4104 34.2274 39.2707ZM40.0591 32.6335L37.0609 30.9005L43.9931 18.8902L46.9912 20.6232L40.0591 32.6335ZM47.8577 19.1242L44.8596 17.3911L46.5926 14.393L49.5908 16.1261L47.8577 19.1242Z" fill="url(#paint0_linear)"/>
<path d="M13.6735 38.8373L10.6065 41.8963L8.76934 40.0592C8.43128 39.7232 7.88548 39.7232 7.54742 40.0592C7.38325 40.2221 7.29102 40.4434 7.29102 40.6744C7.29102 40.9054 7.38325 41.1271 7.54742 41.2896L9.38454 43.1267C9.70948 43.4491 10.1487 43.6297 10.6065 43.6293C11.0668 43.6319 11.5098 43.4512 11.8369 43.1267L14.8955 40.0592C15.19 39.7152 15.1701 39.2028 14.8502 38.8829C14.5299 38.5627 14.0175 38.5428 13.6735 38.8373Z" fill="url(#paint1_linear)"/>
<path d="M3.46582 41.1684C3.46582 45.2365 6.7635 48.5338 10.8312 48.5338C14.899 48.5338 18.1966 45.2365 18.1966 41.1684C18.1966 40.6899 17.8087 40.3019 17.3301 40.3019C16.8516 40.3019 16.4636 40.6899 16.4636 41.1684C16.4636 44.2791 13.9419 46.8008 10.8312 46.8008C7.72056 46.8008 5.19886 44.2791 5.19886 41.1684C5.19886 38.0577 7.72056 35.536 10.8312 35.536C12.0506 35.5326 13.2374 35.9282 14.2106 36.6627C14.5935 36.95 15.1368 36.8722 15.4236 36.4893C15.7109 36.1064 15.6335 35.5635 15.2506 35.2762C13.0187 33.6024 10.0324 33.3333 7.53736 34.5807C5.04189 35.8284 3.46582 38.3789 3.46582 41.1684Z" fill="url(#paint2_linear)"/>
<path d="M31.1949 6.94056C31.6734 6.94056 32.0614 6.55299 32.0614 6.07404C32.0614 5.59551 31.6734 5.20752 31.1949 5.20752H8.66535C8.18682 5.20752 7.79883 5.59551 7.79883 6.07404V9.54012C7.79883 10.0191 8.18682 10.4066 8.66535 10.4066H31.1949C31.6734 10.4066 32.0614 10.0191 32.0614 9.54012C32.0614 9.06158 31.6734 8.6736 31.1949 8.6736H9.53187V6.94056H31.1949Z" fill="url(#paint3_linear)"/>
<path d="M11.265 12.1396C10.7864 12.1396 10.3984 12.5276 10.3984 13.0062C10.3984 13.4851 10.7864 13.8727 11.265 13.8727H28.5954C29.0739 13.8727 29.4619 13.4851 29.4619 13.0062C29.4619 12.5276 29.0739 12.1396 28.5954 12.1396H11.265Z" fill="url(#paint4_linear)"/>
<path d="M33.7942 18.2056H14.7308C14.2522 18.2056 13.8643 18.5936 13.8643 19.0721C13.8643 19.551 14.2522 19.9386 14.7308 19.9386H33.7942C34.2727 19.9386 34.6607 19.551 34.6607 19.0721C34.6607 18.5936 34.2727 18.2056 33.7942 18.2056Z" fill="url(#paint5_linear)"/>
<path d="M25.1288 24.2713C25.1288 23.7928 24.7409 23.4048 24.2623 23.4048H6.93195C6.45342 23.4048 6.06543 23.7928 6.06543 24.2713C6.06543 24.7503 6.45342 25.1378 6.93195 25.1378H24.2623C24.7409 25.1378 25.1288 24.7503 25.1288 24.2713Z" fill="url(#paint6_linear)"/>
<path d="M33.7945 23.4048H27.7288C27.2503 23.4048 26.8623 23.7928 26.8623 24.2713C26.8623 24.7503 27.2503 25.1378 27.7288 25.1378H33.7945C34.273 25.1378 34.661 24.7503 34.661 24.2713C34.661 23.7928 34.273 23.4048 33.7945 23.4048Z" fill="url(#paint7_linear)"/>
<path d="M15.5971 29.4703C16.0757 29.4703 16.4637 29.0828 16.4637 28.6038C16.4637 28.1253 16.0757 27.7373 15.5971 27.7373H6.93195C6.45342 27.7373 6.06543 28.1253 6.06543 28.6038C6.06543 29.0828 6.45342 29.4703 6.93195 29.4703H15.5971Z" fill="url(#paint8_linear)"/>
<path d="M19.0633 29.4703H25.1289C25.6075 29.4703 25.9954 29.0828 25.9954 28.6038C25.9954 28.1253 25.6075 27.7373 25.1289 27.7373H19.0633C18.5848 27.7373 18.1968 28.1253 18.1968 28.6038C18.1968 29.0828 18.5848 29.4703 19.0633 29.4703Z" fill="url(#paint9_linear)"/>
<path d="M38.9934 39.8677C38.5148 39.8677 38.1268 40.2557 38.1268 40.7342V49.3994C38.1268 49.8784 37.7388 50.2659 37.2603 50.2659H2.59956C2.12103 50.2659 1.73304 49.8784 1.73304 49.3994V2.60737C1.73304 2.12884 2.12103 1.74085 2.59956 1.74085H37.2603C37.7388 1.74085 38.1268 2.12884 38.1268 2.60737V18.8808C38.1268 19.3594 38.5148 19.7474 38.9934 19.7474C39.4719 19.7474 39.8599 19.3594 39.8599 18.8808V2.60737C39.8599 1.17177 38.6959 0.0078125 37.2603 0.0078125H2.59956C1.16396 0.0078125 0 1.17177 0 2.60737V49.3994C0 50.8354 1.16396 51.999 2.59956 51.999H37.2603C38.6959 51.999 39.8599 50.8354 39.8599 49.3994V40.7342C39.8599 40.2557 39.4719 39.8677 38.9934 39.8677Z" fill="url(#paint10_linear)"/>
<defs>
<linearGradient id="paint0_linear" x1="51.9999" y1="27.7363" x2="20.8047" y2="27.7363" gradientUnits="userSpaceOnUse">
<stop stop-color="#2063B1"/>
<stop offset="1" stop-color="#3CBAFC"/>
</linearGradient>
<linearGradient id="paint1_linear" x1="15.1039" y1="41.1291" x2="7.29102" y2="41.1291" gradientUnits="userSpaceOnUse">
<stop stop-color="#2063B1"/>
<stop offset="1" stop-color="#3CBAFC"/>
</linearGradient>
<linearGradient id="paint2_linear" x1="18.1966" y1="41.1685" x2="3.46582" y2="41.1685" gradientUnits="userSpaceOnUse">
<stop stop-color="#2063B1"/>
<stop offset="1" stop-color="#3CBAFC"/>
</linearGradient>
<linearGradient id="paint3_linear" x1="32.0614" y1="7.80708" x2="7.79883" y2="7.80708" gradientUnits="userSpaceOnUse">
<stop stop-color="#2063B1"/>
<stop offset="1" stop-color="#3CBAFC"/>
</linearGradient>
<linearGradient id="paint4_linear" x1="29.4619" y1="13.0062" x2="10.3984" y2="13.0062" gradientUnits="userSpaceOnUse">
<stop stop-color="#2063B1"/>
<stop offset="1" stop-color="#3CBAFC"/>
</linearGradient>
<linearGradient id="paint5_linear" x1="34.6607" y1="19.0721" x2="13.8643" y2="19.0721" gradientUnits="userSpaceOnUse">
<stop stop-color="#2063B1"/>
<stop offset="1" stop-color="#3CBAFC"/>
</linearGradient>
<linearGradient id="paint6_linear" x1="25.1288" y1="24.2713" x2="6.06543" y2="24.2713" gradientUnits="userSpaceOnUse">
<stop stop-color="#2063B1"/>
<stop offset="1" stop-color="#3CBAFC"/>
</linearGradient>
<linearGradient id="paint7_linear" x1="34.661" y1="24.2713" x2="26.8623" y2="24.2713" gradientUnits="userSpaceOnUse">
<stop stop-color="#2063B1"/>
<stop offset="1" stop-color="#3CBAFC"/>
</linearGradient>
<linearGradient id="paint8_linear" x1="16.4637" y1="28.6038" x2="6.06543" y2="28.6038" gradientUnits="userSpaceOnUse">
<stop stop-color="#2063B1"/>
<stop offset="1" stop-color="#3CBAFC"/>
</linearGradient>
<linearGradient id="paint9_linear" x1="25.9954" y1="28.6038" x2="18.1968" y2="28.6038" gradientUnits="userSpaceOnUse">
<stop stop-color="#2063B1"/>
<stop offset="1" stop-color="#3CBAFC"/>
</linearGradient>
<linearGradient id="paint10_linear" x1="39.8599" y1="26.0034" x2="1.69625e-07" y2="26.0034" gradientUnits="userSpaceOnUse">
<stop stop-color="#2063B1"/>
<stop offset="1" stop-color="#3CBAFC"/>
</linearGradient>
</defs>
</svg>

<svg width="52" height="52" viewBox="0 0 52 52" fill="none" xmlns="http://www.w3.org/2000/svg"><path d="M51.904 12.33a2.6 2.6 0 00-1.213-1.576 2.6 2.6 0 00-3.553.953l-.433.754a.867.867 0 00-1.178.312l-2.201 3.752-.754-.434a.868.868 0 00-1.187.321.867.867 0 00.32 1.178l.754.434-7.365 12.764-1.82 4.861-.866 1.62a2.6 2.6 0 00.138 2.808l-1.95 2.391-.545-1.369a1.732 1.732 0 00-3.094-.242l-.312.528-.294-3.466a1.734 1.734 0 00-3.371-.407l-2.132 6.395a.866.866 0 00.546 1.092c.085.04.176.063.269.069a.867.867 0 00.823-.59l2.123-6.394.303 3.518a1.733 1.733 0 003.215.745l.32-.529.538 1.361a1.733 1.733 0 002.964.442l2.019-2.556c.223.058.453.087.684.086a2.6 2.6 0 002.262-1.282l.866-1.447 3.302-4.012 7.443-12.92.754.433a.866.866 0 01.32 1.187l-3.465 6.005a.865.865 0 00.277 1.222.866.866 0 001.187-.32l3.466-6.005a2.598 2.598 0 00-.953-3.553l-.754-.434 2.166-3.752a.867.867 0 00-.312-1.178l.434-.754a2.599 2.599 0 00.26-2.01zm-3.267.243a.867.867 0 01.53-.407.91.91 0 01.658.087.867.867 0 01.407.528.91.91 0 01-.087.659l-.433.754-1.508-.867.434-.754zm-11.81 24.194l-.433-.252-1.283-.745 1.23-3.293 2.73 1.577-2.244 2.713zm-2.6 2.504a.866.866 0 01-.26-1.135l.434-.754 1.507.867-.433.745a.866.866 0 01-1.248.277zm5.832-6.638L37.061 30.9l6.932-12.01 2.998 1.733-6.932 12.01zm7.799-13.509l-2.998-1.733 1.733-2.998 2.998 1.733-1.733 2.998z" fill="url(#paint0_linear)"/><path d="M13.674 38.837l-3.067 3.06-1.838-1.838a.867.867 0 10-1.222 1.23l1.838 1.838a1.73 1.73 0 001.222.502c.46.003.903-.178 1.23-.502l3.059-3.068a.867.867 0 00-1.223-1.222z" fill="url(#paint1_linear)"/><path d="M3.466 41.168a7.365 7.365 0 1014.73 0 .867.867 0 00-1.732 0 5.632 5.632 0 11-5.633-5.632 5.584 5.584 0 013.38 1.127.866.866 0 101.04-1.387 7.366 7.366 0 00-11.785 5.892z" fill="url(#paint2_linear)"/><path d="M31.195 6.94a.866.866 0 100-1.732H8.665a.867.867 0 00-.866.866V9.54c0 .48.388.867.866.867h22.53a.866.866 0 100-1.733H9.532V6.94h21.663z" fill="url(#paint3_linear)"/><path d="M11.265 12.14a.867.867 0 000 1.733h17.33a.866.866 0 100-1.733h-17.33z" fill="url(#paint4_linear)"/><path d="M33.794 18.206H14.731a.867.867 0 000 1.733h19.063a.866.866 0 100-1.733z" fill="url(#paint5_linear)"/><path d="M25.129 24.271a.867.867 0 00-.867-.866H6.932a.867.867 0 000 1.733h17.33a.866.866 0 00.867-.867z" fill="url(#paint6_linear)"/><path d="M33.794 23.405H27.73a.867.867 0 000 1.733h6.066a.866.866 0 100-1.733z" fill="url(#paint7_linear)"/><path d="M15.597 29.47a.866.866 0 100-1.733H6.932a.867.867 0 000 1.733h8.665z" fill="url(#paint8_linear)"/><path d="M19.063 29.47h6.066a.866.866 0 100-1.733h-6.066a.867.867 0 000 1.733z" fill="url(#paint9_linear)"/><path d="M38.993 39.868a.867.867 0 00-.866.866V49.4a.866.866 0 01-.867.867H2.6a.866.866 0 01-.867-.867V2.607c0-.478.388-.866.867-.866h34.66c.479 0 .867.388.867.866v16.274a.867.867 0 001.733 0V2.607a2.6 2.6 0 00-2.6-2.6H2.6a2.6 2.6 0 00-2.6 2.6V49.4A2.6 2.6 0 002.6 52h34.66a2.6 2.6 0 002.6-2.6v-8.665a.867.867 0 00-.867-.866z" fill="url(#paint10_linear)"/><defs><linearGradient id="paint0_linear" x1="52" y1="27.736" x2="20.805" y2="27.736" gradientUnits="userSpaceOnUse"><stop stop-color="#2063B1"/><stop offset="1" stop-color="#3CBAFC"/></linearGradient><linearGradient id="paint1_linear" x1="15.104" y1="41.129" x2="7.291" y2="41.129" gradientUnits="userSpaceOnUse"><stop stop-color="#2063B1"/><stop offset="1" stop-color="#3CBAFC"/></linearGradient><linearGradient id="paint2_linear" x1="18.197" y1="41.169" x2="3.466" y2="41.169" gradientUnits="userSpaceOnUse"><stop stop-color="#2063B1"/><stop offset="1" stop-color="#3CBAFC"/></linearGradient><linearGradient id="paint3_linear" x1="32.061" y1="7.807" x2="7.799" y2="7.807" gradientUnits="userSpaceOnUse"><stop stop-color="#2063B1"/><stop offset="1" stop-color="#3CBAFC"/></linearGradient><linearGradient id="paint4_linear" x1="29.462" y1="13.006" x2="10.398" y2="13.006" gradientUnits="userSpaceOnUse"><stop stop-color="#2063B1"/><stop offset="1" stop-color="#3CBAFC"/></linearGradient><linearGradient id="paint5_linear" x1="34.661" y1="19.072" x2="13.864" y2="19.072" gradientUnits="userSpaceOnUse"><stop stop-color="#2063B1"/><stop offset="1" stop-color="#3CBAFC"/></linearGradient><linearGradient id="paint6_linear" x1="25.129" y1="24.271" x2="6.065" y2="24.271" gradientUnits="userSpaceOnUse"><stop stop-color="#2063B1"/><stop offset="1" stop-color="#3CBAFC"/></linearGradient><linearGradient id="paint7_linear" x1="34.661" y1="24.271" x2="26.862" y2="24.271" gradientUnits="userSpaceOnUse"><stop stop-color="#2063B1"/><stop offset="1" stop-color="#3CBAFC"/></linearGradient><linearGradient id="paint8_linear" x1="16.464" y1="28.604" x2="6.065" y2="28.604" gradientUnits="userSpaceOnUse"><stop stop-color="#2063B1"/><stop offset="1" stop-color="#3CBAFC"/></linearGradient><linearGradient id="paint9_linear" x1="25.995" y1="28.604" x2="18.197" y2="28.604" gradientUnits="userSpaceOnUse"><stop stop-color="#2063B1"/><stop offset="1" stop-color="#3CBAFC"/></linearGradient><linearGradient id="paint10_linear" x1="39.86" y1="26.003" x2="0" y2="26.003" gradientUnits="userSpaceOnUse"><stop stop-color="#2063B1"/><stop offset="1" stop-color="#3CBAFC"/></linearGradient></defs></svg>
